X:135
T: Tuhy's Frolic
S: Treoir
Z: B.Black
N: from "O'Farrell's Pocket Companion for the
N: Irish Union Pipes"
M: 6/8
L: 1/8
R: jig
K: Bm
A | dcd AGF | DED AGF | dcd AGF | EFA B2 c |
dfd AGF | DGD AGF | G3 FAd | EFA B2 :|
c | d2 e fdB | Bcd ecA | dfe fdB | ecA B2 c |
dfe fdB | Bcd ecA | dcB AGF | EFA B2 :|
c | dDD ADD | BDD AGF | dDD AGF EFA B2 c |
dDD ADD | BDD AGF | G3 FAd | EFA B2 :|
d | f/g/af fdB | efe ecA | f/g/af fdB | ecA B2 c |
dfa fdB | Bcd edc | dcB AGF | EFA B2 :|
